X: 1
T: Cairn on the Moor
R: waltz
Z: 2005 John Chambers <jc@trillian.mit.edu>
M: 3/4
L: 1/8
K: G
|:  "G"B3 A B2 |"Em"G3 F G2 | "D"A3 G A2 | "G"B4 G2 \
|1 "Em"B3 A B2 | "G"G3 F G2 | "C"g3 f e2 |"D7"d4 g2 \
|2  "C"e3 f g2 | "G"d3 c B2 |"D7"c3 B A2 | "G"G4- G2 |]
|: "C(Em)"g3 f g2 | "G"d3 B G2 | "C"e3 d B2 | "G"d3 B G2 \
|1    "Em"g3 f g2 | "G"g3 d B2 | "C"e3 d (3BcB | "D7"A4 d2 \
|2     "C"e3 f g2 | "G"d3 c (3BcB | "D7"c2 B2 A2 | "G"G4- G2 |]
